fs/timer_off_20_filled.svg

<svg viewBox="0 0 20 20" fill="none" xmlns="http://www.w3.org/2000/svg" height="1em" width="1em">
  <path d="M4.9625 5.66961L2.14645 2.85355C1.95118 2.65829 1.95118 2.34171 2.14645 2.14645C2.34171 1.95118 2.65829 1.95118 2.85355 2.14645L17.8536 17.1464C18.0488 17.3417 18.0488 17.6583 17.8536 17.8536C17.6583 18.0488 17.3417 18.0488 17.1464 17.8536L14.8304 15.5375C13.5464 17.0443 11.6348 18 9.5 18C5.63401 18 2.5 14.866 2.5 11C2.5 8.86518 3.45566 6.95356 4.9625 5.66961ZM10 10.7071L9 9.70711V11.5C9 11.7761 9.22386 12 9.5 12C9.77614 12 10 11.7761 10 11.5V10.7071ZM10 6.5V7.87866L15.9187 13.7974C16.2926 12.9406 16.5 11.9945 16.5 11C16.5 7.13401 13.366 4 9.5 4C8.50548 4 7.55939 4.2074 6.70264 4.58131L9 6.87866V6.5C9 6.22386 9.22386 6 9.5 6C9.77614 6 10 6.22386 10 6.5ZM7 2.5C7 2.22386 7.22386 2 7.5 2H11.5C11.7761 2 12 2.22386 12 2.5C12 2.77614 11.7761 3 11.5 3H7.5C7.22386 3 7 2.77614 7 2.5ZM14.4492 3.92899C14.6444 3.73373 14.961 3.73373 15.1563 3.92899L16.5705 5.34321C16.7658 5.53847 16.7658 5.85505 16.5705 6.05031C16.3752 6.24558 16.0587 6.24558 15.8634 6.05031L14.4492 4.6361C14.2539 4.44084 14.2539 4.12426 14.4492 3.92899Z" fill="#212121"/>
</svg>

<svg viewBox="0 0 20 20" fill="none" xmlns="http://www.w3.org/2000/svg" height="1em" width="1em">
  <path d="M4.963 5.67 2.146 2.854a.5.5 0 1 1 .708-.708l15 15a.5.5 0 0 1-.708.708l-2.316-2.316A7 7 0 1 1 4.962 5.67ZM10 10.707l-1-1V11.5a.5.5 0 0 0 1 0v-.793ZM10 6.5v1.379l5.919 5.918a7 7 0 0 0-9.216-9.216L9 6.88V6.5a.5.5 0 0 1 1 0Zm-3-4a.5.5 0 0 1 .5-.5h4a.5.5 0 0 1 0 1h-4a.5.5 0 0 1-.5-.5Zm7.45 1.429a.5.5 0 0 1 .706 0l1.414 1.414a.5.5 0 1 1-.707.707L14.45 4.636a.5.5 0 0 1 0-.707Z" fill="#212121"/>
</svg>
